client/src/assets/sprites/ring-L.svg

<?xml version="1.0" encoding="UTF-8" standalone="no"?>
<!-- Created with Inkscape (http://www.inkscape.org/) -->

<svg
   xmlns:dc="http://purl.org/dc/elements/1.1/"
   xmlns:cc="http://creativecommons.org/ns#"
   xmlns:rdf="http://www.w3.org/1999/02/22-rdf-syntax-ns#"
   xmlns:svg="http://www.w3.org/2000/svg"
   xmlns="http://www.w3.org/2000/svg"
   xmlns:sodipodi="http://sodipodi.sourceforge.net/DTD/sodipodi-0.dtd"
   xmlns:inkscape="http://www.inkscape.org/namespaces/inkscape"
   width="131.71925mm"
   height="76.761894mm"
   viewBox="0 0 131.71925 76.761894"
   version="1.1"
   id="svg8"
   inkscape:version="0.92.4 (5da689c313, 2019-01-14)"
   sodipodi:docname="ring-L.svg">
  <defs
     id="defs2" />
  <sodipodi:namedview
     id="base"
     pagecolor="#ffffff"
     bordercolor="#666666"
     borderopacity="1.0"
     inkscape:pageopacity="0.0"
     inkscape:pageshadow="2"
     inkscape:zoom="1.4"
     inkscape:cx="255.63791"
     inkscape:cy="197.86211"
     inkscape:document-units="mm"
     inkscape:current-layer="layer1"
     showgrid="false"
     fit-margin-top="0"
     fit-margin-left="0"
     fit-margin-right="0"
     fit-margin-bottom="0"
     inkscape:window-width="1920"
     inkscape:window-height="1017"
     inkscape:window-x="1072"
     inkscape:window-y="394"
     inkscape:window-maximized="1" />
  <metadata
     id="metadata5">
    <rdf:RDF>
      <cc:Work
         rdf:about="">
        <dc:format>image/svg+xml</dc:format>
        <dc:type
           rdf:resource="http://purl.org/dc/dcmitype/StillImage" />
        <dc:title></dc:title>
      </cc:Work>
    </rdf:RDF>
  </metadata>
  <g
     inkscape:label="Layer 1"
     inkscape:groupmode="layer"
     id="layer1"
     transform="translate(-59.527938,-12.837699)">
    <g
       id="g928"
       transform="translate(20.728054,-18.125213)">
      <g
         id="g953">
        <path
           inkscape:connector-curvature="0"
           style="opacity:1;vector-effect:none;fill:#666666;fill-opacity:1;stroke:none;stroke-width:13.60629845;stroke-linecap:butt;stroke-linejoin:miter;stroke-miterlimit:4;stroke-dasharray:none;stroke-dashoffset:0;stroke-opacity:1"
           d="M 147.51953,25.931641 A 50.714286,167.5 77.127693 0 0 53.345703,38.367188 50.714286,167.5 77.127693 0 0 -98.648438,125.12109 50.714286,167.5 77.127693 0 0 -79.076172,142.20117 50.714286,167.5 77.127693 0 1 63.345703,78.722656 50.714286,167.5 77.127693 0 1 218.36133,73.769531 50.714286,167.5 77.127693 0 0 227.93359,50.490234 50.714286,167.5 77.127693 0 0 147.51953,25.931641 Z"
           transform="matrix(0.26458333,0,0,0.26458333,65.399849,24.119579)"
           id="path844-4" />
        <path
           inkscape:connector-curvature="0"
           style="opacity:1;vector-effect:none;fill:#cccccc;fill-opacity:1;stroke:none;stroke-width:13.60629749;stroke-linecap:butt;stroke-linejoin:miter;stroke-miterlimit:4;stroke-dasharray:none;stroke-dashoffset:0;stroke-opacity:1"
           d="m 224.96875,44.554688 a 50.714285,167.5 77.127693 0 1 2.96484,5.935546 50.714285,167.5 77.127693 0 1 -27.84961,38.369141 38.621442,21.327936 72.885502 0 0 0.0332,0.06445 50.714287,167.5 77.127693 0 1 -124.130862,48.441405 50.714287,167.5 77.127693 0 1 -132.998047,10.29297 38.621442,21.327936 82.097668 0 0 0.002,-0.0254 50.714285,167.5 77.127693 0 1 -10.308593,-1.88672 50.714287,167.5 77.127693 0 1 -0.269532,-0.0723 50.714285,167.5 77.127693 0 1 -8.625,-2.36719 50.714287,167.5 77.127693 0 1 -0.335937,-0.11719 50.714285,167.5 77.127693 0 1 -22.09961,-18.06836 50.714285,167.5 77.127693 0 1 0.617188,-8.93554 38.621442,21.327936 82.097668 0 0 -1.855469,26.21093 38.621442,21.327936 82.097668 0 0 19.257813,34.14258 50.714287,167.5 77.127693 0 0 166.615234,1.1836 A 50.714287,167.5 77.127693 0 0 235.86133,103.70703 38.621442,21.327936 72.885502 0 0 237.1875,66.927734 38.621442,21.327936 72.885502 0 0 224.96875,44.554688 Z M -92.941406,106.55859 a 38.621442,21.327936 82.097668 0 0 -0.578125,0.75391 50.714285,167.5 77.127693 0 1 0.578125,-0.75391 z m -2.279297,3.30664 a 38.621442,21.327936 82.097668 0 0 -1.412109,2.74415 50.714285,167.5 77.127693 0 1 1.412109,-2.74415 z"
           transform="matrix(0.26458333,0,0,0.26458333,65.399849,24.119579)"
           id="path844-9" />
      </g>
    </g>
  </g>
</svg>

<svg xmlns="http://www.w3.org/2000/svg" width="497.837" height="290.124" viewBox="0 0 131.719 76.762"><path style="opacity:1;vector-effect:none;fill:#666;fill-opacity:1;stroke:none;stroke-width:13.60629845;stroke-linecap:butt;stroke-linejoin:miter;stroke-miterlimit:4;stroke-dasharray:none;stroke-dashoffset:0;stroke-opacity:1" d="M147.52 25.932a50.714 167.5 77.128 0 0-94.174 12.435 50.714 167.5 77.128 0 0-151.994 86.754 50.714 167.5 77.128 0 0 19.572 17.08A50.714 167.5 77.128 0 1 63.346 78.723 50.714 167.5 77.128 0 1 218.36 73.77a50.714 167.5 77.128 0 0 9.573-23.28 50.714 167.5 77.128 0 0-80.414-24.558Z" transform="matrix(.26458 0 0 .26458 26.6 -6.843)"/><path style="opacity:1;vector-effect:none;fill:#ccc;fill-opacity:1;stroke:none;stroke-width:13.60629749;stroke-linecap:butt;stroke-linejoin:miter;stroke-miterlimit:4;stroke-dasharray:none;stroke-dashoffset:0;stroke-opacity:1" d="M224.969 44.555a50.714 167.5 77.128 0 1 2.965 5.935 50.714 167.5 77.128 0 1-27.85 38.37 38.621 21.328 72.886 0 0 .033.064 50.714 167.5 77.128 0 1-124.13 48.441 50.714 167.5 77.128 0 1-132.999 10.293 38.621 21.328 82.098 0 0 .002-.025 50.714 167.5 77.128 0 1-10.308-1.887 50.714 167.5 77.128 0 1-.27-.072 50.714 167.5 77.128 0 1-8.625-2.367 50.714 167.5 77.128 0 1-.336-.118 50.714 167.5 77.128 0 1-22.1-18.068 50.714 167.5 77.128 0 1 .618-8.935 38.621 21.328 82.098 0 0-1.856 26.21 38.621 21.328 82.098 0 0 19.258 34.143 50.714 167.5 77.128 0 0 166.615 1.184 50.714 167.5 77.128 0 0 149.875-74.016 38.621 21.328 72.886 0 0 1.327-36.78 38.621 21.328 72.886 0 0-12.22-22.372Zm-317.91 62.004a38.621 21.328 82.098 0 0-.579.753 50.714 167.5 77.128 0 1 .579-.753zm-2.28 3.306a38.621 21.328 82.098 0 0-1.412 2.744 50.714 167.5 77.128 0 1 1.412-2.744z" transform="matrix(.26458 0 0 .26458 26.6 -6.843)"/></svg>
